X: 677
T: Jaybird
B: jims roots
M:4/4
L:1/4
R: reel
Q: 1/4=100
K:D
V:1 
(3 a/_a/g/ | "D"fd fd | f/a f/a (3 a/_a/f/ | "A"ec ec | e/g e/g (3 a/_a/g/ |
 "D"fd fd | f/a f/a (3A/B/c/ | d/e/d/B/ A/B/A/G/ | "A"F/D/E/F/ "D"D :|
|: (3 D/E/F/ | "G"GB BA/G/ | "D"FAA (3 D/E/F/ | "E"Ee e/f/e/d/ | "A"cA AB/A/ |
"G"GB BA/G/ | "D"FAA A/B/c/ | d/e/d/B/ A/B/A/G/ | "A"FD "D"D :|
% abcbook-tune_id 6298c25d643c040d6d59e01a


% abcbook-boost 0
% abcbook-tablature 
% abcbook-transpose 
% abcbook-lastupdated 1654178399080
% abcbook-soundfonts 
% abcbook-repeats 1


